X: 6977
T: Chicago, The
R: jig
M: 6/8
K: Gmajor
dgg gag|fdc ABc|B2 G GAG|F2 D D3|
dgg gag|fdc ABc|BdB cAF|1 GAG GAB:|2 GAG GAG||

